X:1
T:Lead Me Higher
T:Lead Me Higher
T:Charles Frederick Weigle, 1907
T:William James Pearson, 1884
T:Public Domain Courtesy of the Cyber Hymnal™
T:Public Domain Courtesy of the Cyber Hymnal™
C:Charles Frederick Weigle, 1907
Z:Public Domain
Z:Courtesy of the Cyber Hymnal™
%%score ( 1 2 ) ( 3 4 )
L:1/8
Q:1/4=110
M:4/4
K:Ab
V:1 treble 
V:2 treble 
V:3 bass 
V:4 bass 
V:1
 [CE]2 [CE]2 [DF]2 [DF]2 | [DG]2 [DG]2 [CA]2 [CA]2 | [FA]>[=EG] [FA]>[EB] [FA]2 [FB]2 | [Ec]8 | %4
w: 1.~Je- sus, lead me|up the mount- ain,|Where the whit- est robes are|seen,|
w: 2.~High- er up, where|light in- creas- es,|Rich a- bove all earth- ly|good,|
w: 3.~Lead me high- er,|no- thing dread- ing,|In the race to nev- er|stop,|
w: 4.~Save me bet- ter,|make me sur- er,|Put me where the fire re-|fines,|
 [CE]2 [CE]2 [DF]2 [DF]2 | [DG]2 [DG]2 [CA]2 [FA]2 | [EB]>[E=A] [EB]>[_Gc] [=GB]2 [=DF]2 | B6 || %8
w: Where the saints can|see the fount- ain,|Where the pure are keep- ing|clean.|
w: Where the life of|sin- ning ceas- es,|Where the Spir- it comes in|floods—|
w: In Thy foot- steps|keep me tread- ing,|Give me grace to reach the|top.|
w: Where the breath of|hope is pur- er,|Where the bright- est glor- y|shines.|
"^Refrain" E>E | (z2 [EA]>)[Ec] [EB]>[EA] x2 | [EA]2 [EG]4 E>E | (z2 [EB]>)[Ed] [Ec]>[EB] x2 | %12
w: ||||
w: Lead me|* high- er up|* the mount- ain,|* Give me fel-|
w: ||||
w: ||||
 [Ec]6 c>d | (z2 [Ae]>)[Ee] [Ed]>[Ec] x2 | [FB]2 !fermata![Fd]4 [Fc]>[FB] | %15
w: |||
w: * low- ship|* with Thee; In|* Thy light I|
w: |||
w: |||
 [EA]3 [CE] [Ec]2 [DB]2 | A8 |] %17
w: ||
w: see the fount- ain,|And|
w: ||
w: ||
V:2
 x8 | x8 | x8 | x8 | x8 | x8 | x8 | (E2 =D2 _D2) || x2 | A4- E>E x2 | x8 | B4- E>E x2 | x8 | %13
 e4 E>E x2 | x8 | x8 | (C>CD>B, C4) |] %17
V:3
 [A,,A,]2 [A,,A,]2 [D,A,]2 [D,F,]2 | E,2 [E,B,]2 [A,,A,]2 [A,,A,]2 | %2
w: ~ ~ ~ ~|~ ~ ~ ~|
 [D,A,]>[D,B,] [D,A,]>[D,G,] [D,A,]2 [D,A,]2 | [A,,A,]8 | [A,,A,]2 [A,,A,]2 [D,A,]2 [D,F,]2 | %5
w: ~ ~ ~ ~ ~ ~|~|~ ~ ~ ~|
 E,2 [=E,B,]2 [F,A,]2 [F,C]2 | [G,D]>[^F,C] [G,B,]>[=A,E] [B,E]2 [_A,B,]2 | %7
w: ~ ~ ~ ~|~ ~ ~ ~ ~ ~|
 ([G,B,]2 [F,A,]2 [E,G,]2) || z2 | z2 [A,,C]>[A,,C] [A,,C]>[A,,A,] [B,,G,]>[C,A,] | %10
w: ~ * *||Lead me high- er ~ ~|
 [E,C]2 [E,B,]4 z2 | z2 [E,G,]>[E,G,] [E,G,]>[E,B,] [E,A,]>[E,G,] | A,6 z2 | %13
w: ~ ~|Give me fel- low- ship with|Thee;|
 z2 [A,C]>[A,C] [A,C]>[A,C] [G,B,]>A, | [D,A,]2 !fermata![B,,B,]4 [C,=A,]>[D,B,] | %15
w: In Thy light ~ ~ ~|~ ~ ~ ~|
 [E,C]3 [E,A,] [E,A,]2 [E,G,]2 | A,>E,F,>D, E,4 |] %17
w: ~ ~ ~ ~|~ it cleans- es me.|
V:4
 x8 | E,2 x6 | x8 | x8 | x8 | =E,2 x6 | x8 | x6 || x2 | x8 | x8 | x8 | (A,,<A,,C,E, A,2) x2 | %13
 x15/2 A,/ | x8 | x8 | A,,8 |] %17

